apps/service-portal/src/assets/images/myDocuments.svg

<svg width="55" height="82" viewBox="0 0 55 82" fill="none" xmlns="http://www.w3.org/2000/svg">
<path d="M54.0502 48.8986L39.3866 53.2833C39.3866 53.2833 37.8084 52.7548 34.3634 51.6048C30.9183 50.4548 30.2748 50.3324 28.1632 50.9368C26.0932 51.3136 22.2983 56.5815 22.2983 56.5815C25.4522 56.8384 27.8329 54.8492 27.8329 54.8492L37.2848 59.5348H54.0527V48.8986H54.0502ZM13.3112 5.95508C8.97306 5.95508 5.45703 9.47111 5.45703 13.8093C5.45703 18.1474 8.97306 21.6634 13.3112 21.6634C17.6494 21.6634 21.1654 18.1474 21.1654 13.8093C21.1654 9.47111 17.6494 5.95508 13.3112 5.95508Z" fill="url(#paint0_linear)"/>
<path d="M17.7776 3.83163C18.5857 3.83163 19.2408 3.17654 19.2408 2.36845C19.2408 1.56036 18.5857 0.905273 17.7776 0.905273C16.9695 0.905273 16.3145 1.56036 16.3145 2.36845C16.3145 3.17654 16.9695 3.83163 17.7776 3.83163Z" fill="#0061FF"/>
<path d="M23.1055 56.9487C22.4253 56.9487 22.0387 56.8165 21.9947 56.8019C21.8772 56.7603 21.7892 56.6624 21.7622 56.5401C21.7329 56.4202 21.7671 56.2929 21.8552 56.2024L25.8166 52.0576C25.89 51.9817 25.9658 51.9059 26.0417 51.8324C27.6761 50.2812 30.0691 49.7796 32.2908 50.521L39.4476 52.9115C40.9426 52.8479 48.1753 50.3375 50.8716 49.3636C51.0625 49.2951 51.2729 49.393 51.3414 49.5839C51.4099 49.7747 51.3121 49.9851 51.1212 50.0536C50.7151 50.2004 41.1579 53.648 39.3913 53.648C39.3522 53.648 39.313 53.6406 39.2739 53.6284L32.0583 51.2183C30.096 50.5626 27.9844 51.003 26.5482 52.3658C26.4796 52.4295 26.4136 52.4955 26.35 52.564L22.8731 56.2024C23.8787 56.2538 26.0368 55.9871 28.9142 53.5672C29.0683 53.4375 29.3008 53.4571 29.4305 53.6113C29.5601 53.7654 29.5406 53.9979 29.3864 54.1275C26.5506 56.5107 24.346 56.9487 23.1055 56.9487Z" fill="#6A2EA0"/>
<path d="M39.3866 60.9571C39.3328 60.9571 39.2765 60.9449 39.2227 60.918L27.6665 55.1778C27.4854 55.0873 27.412 54.8671 27.5001 54.686C27.5906 54.505 27.8108 54.4315 27.9919 54.5196L39.5481 60.2598C39.7291 60.3503 39.8026 60.5705 39.7145 60.7516C39.6509 60.8813 39.5212 60.9571 39.3866 60.9571Z" fill="#6A2EA0"/>
<path d="M36.3545 63.0559C36.2982 63.0559 36.2444 63.0437 36.1905 63.0168C34.0153 61.9304 28.6324 59.4322 28.5761 59.4078C28.3926 59.3221 28.3119 59.1044 28.3975 58.9209C28.4832 58.7373 28.7009 58.6566 28.8844 58.7422C28.9383 58.7667 34.3334 61.2673 36.5184 62.361C36.6995 62.4516 36.7729 62.6718 36.6823 62.8528C36.6187 62.9825 36.489 63.0559 36.3545 63.0559Z" fill="#6A2EA0"/>
<path d="M32.9096 64.8467C32.8533 64.8467 32.7995 64.8345 32.7457 64.8075L26.7535 61.8176C26.5724 61.727 26.499 61.5068 26.5896 61.3258C26.6801 61.1447 26.9003 61.0713 27.0814 61.1618L33.0735 64.1518C33.2546 64.2423 33.328 64.4625 33.2375 64.6436C33.1739 64.7733 33.0442 64.8467 32.9096 64.8467Z" fill="#6A2EA0"/>
<path d="M29.0191 65.7252C28.9653 65.7252 28.9115 65.7129 28.8601 65.6885L23.8369 63.2637C23.6533 63.1756 23.5775 62.9554 23.6656 62.7744C23.7537 62.5908 23.9739 62.515 24.1549 62.6031L29.1782 65.0279C29.3617 65.1159 29.4375 65.3361 29.3495 65.5172C29.2858 65.6493 29.1562 65.7252 29.0191 65.7252Z" fill="#6A2EA0"/>
<path d="M25.321 66.6063C25.3014 66.6063 25.2818 66.6038 25.2647 66.6014C25.1326 66.5818 22.0031 66.0484 17.4741 61.7543C13.941 58.4046 0.596216 59.7381 0.464089 59.7528C0.261006 59.7724 0.0823908 59.628 0.0603697 59.4249C0.0407954 59.2243 0.185156 59.0432 0.388239 59.0212C0.951 58.9625 14.2028 57.6388 17.9806 61.2209C22.3212 65.3364 25.3503 65.8698 25.3797 65.8747C25.5803 65.9065 25.7149 66.0949 25.6831 66.2955C25.6538 66.479 25.4996 66.6063 25.321 66.6063Z" fill="#6A2EA0"/>
<path d="M15.9196 53.3202C15.8804 53.3202 15.8413 53.3129 15.8022 53.3006L0.306657 48.0596C0.113361 47.9936 0.0105959 47.7856 0.0766591 47.5947C0.140276 47.4014 0.348252 47.2987 0.541548 47.3647L15.8951 52.5593C21.1386 50.0954 27.5908 50.6508 27.8648 50.6752C28.0654 50.6948 28.2147 50.8734 28.1976 51.0741C28.1804 51.2772 28.0018 51.4264 27.7987 51.4068C27.7327 51.4019 21.1582 50.8367 16.0786 53.286C16.0273 53.308 15.9734 53.3202 15.9196 53.3202Z" fill="#6A2EA0"/>
<path d="M37.191 35.5031H16.0704C14.3454 35.5031 12.9434 34.1011 12.9434 32.3761V16.5723C12.9434 14.8473 14.3454 13.4453 16.0704 13.4453H45.0917C46.8167 13.4453 48.2187 14.8473 48.2187 16.5723V24.473C48.2187 24.6761 48.0547 24.84 47.8517 24.84C47.6486 24.84 47.4846 24.6761 47.4846 24.473V16.5723C47.4846 15.2535 46.4105 14.1793 45.0917 14.1793H16.0704C14.7515 14.1793 13.6774 15.2535 13.6774 16.5723V32.3761C13.6774 33.6949 14.7515 34.7691 16.0704 34.7691H37.191C37.3941 34.7691 37.558 34.933 37.558 35.1361C37.558 35.3392 37.3941 35.5031 37.191 35.5031Z" fill="#6A2EA0"/>
<path d="M42.5228 24.8395H37.1912C36.9882 24.8395 36.8242 24.6756 36.8242 24.4725V22.4343C36.8242 22.2312 36.9882 22.0673 37.1912 22.0673C37.3943 22.0673 37.5583 22.2312 37.5583 22.4343V24.1055H42.1558V19.0651H39.0581C38.8551 19.0651 38.6911 18.9012 38.6911 18.6981C38.6911 18.495 38.8551 18.3311 39.0581 18.3311H42.5228C42.7259 18.3311 42.8898 18.495 42.8898 18.6981V24.4725C42.8898 24.6756 42.7259 24.8395 42.5228 24.8395Z" fill="#6A2EA0"/>
<path d="M39.8569 23.2371C39.7517 23.2371 39.6514 23.1931 39.5829 23.1123L36.9183 20.093C36.7838 19.9413 36.7984 19.7089 36.9501 19.5743C37.1018 19.4397 37.3343 19.4544 37.4689 19.6061L39.8104 22.256L43.3607 16.6039C43.4684 16.4326 43.6959 16.3812 43.8672 16.4889C44.0385 16.5966 44.0899 16.8241 43.9822 16.9954L40.1701 23.0634C40.1089 23.1613 40.0037 23.2249 39.8887 23.2347C39.8765 23.2371 39.8667 23.2371 39.8569 23.2371Z" fill="#6A2EA0"/>
<path d="M13.4298 28.5317C12.0963 28.5317 10.7603 28.2307 9.58832 27.6313C7.05345 26.332 4.39624 26.3222 2.65168 27.5995C2.48774 27.7194 2.25775 27.6851 2.13785 27.5212C2.01796 27.3572 2.05222 27.1272 2.21615 27.0073C4.18581 25.5637 7.13664 25.5515 9.92108 26.9755C12.0596 28.0717 14.8024 28.0717 16.9042 26.9755C19.3216 25.7154 22.2651 25.7228 24.5871 26.9902C24.7657 27.0881 24.8293 27.3108 24.7339 27.4894C24.6385 27.668 24.4134 27.734 24.2348 27.6362C22.1575 26.5009 19.4122 26.4984 17.2419 27.6288C16.0919 28.2307 14.7633 28.5317 13.4298 28.5317Z" fill="#6A2EA0"/>
<defs>
<linearGradient id="paint0_linear" x1="5.45622" y1="32.7449" x2="54.051" y2="32.7449" gradientUnits="userSpaceOnUse">
<stop stop-color="#4C90FF"/>
<stop offset="0.1262" stop-color="#5B8BF5"/>
<stop offset="0.3684" stop-color="#827CDA"/>
<stop offset="0.6985" stop-color="#C064AF"/>
<stop offset="1" stop-color="#FF4C84"/>
</linearGradient>
</defs>
</svg>

<svg width="55" height="82" fill="none" xmlns="http://www.w3.org/2000/svg"><path d="m54.05 48.899-14.663 4.384-5.024-1.678c-3.445-1.15-4.088-1.273-6.2-.668-2.07.377-5.865 5.645-5.865 5.645 3.154.256 5.535-1.733 5.535-1.733l9.452 4.686h16.768V48.899h-.003ZM13.311 5.955a7.854 7.854 0 0 0-7.854 7.854 7.854 7.854 0 0 0 7.854 7.854 7.854 7.854 0 0 0 7.854-7.854 7.854 7.854 0 0 0-7.854-7.854Z" fill="url(#a)"/><path d="M17.778 3.832a1.463 1.463 0 1 0 0-2.927 1.463 1.463 0 0 0 0 2.927Z" fill="#0061FF"/><path d="M23.105 56.949c-.68 0-1.066-.133-1.11-.147a.36.36 0 0 1-.233-.262.36.36 0 0 1 .093-.338l3.962-4.144c.073-.076.149-.152.225-.226 1.634-1.55 4.027-2.052 6.249-1.311l7.157 2.39c1.495-.063 8.727-2.574 11.424-3.547a.367.367 0 1 1 .25.69c-.407.146-9.964 3.594-11.73 3.594a.395.395 0 0 1-.118-.02l-7.216-2.41c-1.962-.655-4.074-.215-5.51 1.148a3.78 3.78 0 0 0-.198.198l-3.477 3.638c1.006.052 3.164-.215 6.041-2.635a.368.368 0 0 1 .516.044c.13.154.11.387-.044.517-2.835 2.383-5.04 2.82-6.28 2.82Z" fill="#6A2EA0"/><path d="M39.387 60.957a.366.366 0 0 1-.164-.039l-11.556-5.74a.37.37 0 0 1-.167-.492.37.37 0 0 1 .492-.166l11.556 5.74a.37.37 0 0 1 .166.492.366.366 0 0 1-.327.205ZM36.355 63.056a.36.36 0 0 1-.164-.04c-2.176-1.086-7.559-3.584-7.615-3.608a.367.367 0 0 1 .308-.666c.054.025 5.45 2.525 7.634 3.619a.367.367 0 0 1-.163.695ZM32.91 64.847a.358.358 0 0 1-.164-.04l-5.993-2.99a.367.367 0 1 1 .328-.655l5.993 2.99a.367.367 0 0 1-.164.695ZM29.02 65.725a.37.37 0 0 1-.16-.036l-5.023-2.425a.366.366 0 1 1 .318-.66l5.023 2.424a.366.366 0 0 1-.159.697ZM25.321 66.606a.408.408 0 0 1-.056-.005c-.132-.02-3.262-.553-7.79-4.847C13.94 58.404.595 59.738.464 59.753a.368.368 0 0 1-.077-.732c.563-.059 13.815-1.382 17.593 2.2 4.34 4.115 7.37 4.649 7.399 4.654.2.031.335.22.303.42a.365.365 0 0 1-.362.311ZM15.92 53.32a.39.39 0 0 1-.118-.02L.307 48.06a.366.366 0 0 1-.23-.465.364.364 0 0 1 .465-.23l15.353 5.194c5.244-2.464 11.696-1.908 11.97-1.884.2.02.35.198.333.4a.364.364 0 0 1-.4.332c-.065-.005-6.64-.57-11.72 1.879a.404.404 0 0 1-.158.034ZM37.191 35.503h-21.12a3.13 3.13 0 0 1-3.128-3.127V16.572a3.13 3.13 0 0 1 3.127-3.127h29.022a3.13 3.13 0 0 1 3.127 3.127v7.901a.367.367 0 1 1-.734 0v-7.9a2.397 2.397 0 0 0-2.393-2.394H16.07a2.397 2.397 0 0 0-2.393 2.393v15.804a2.397 2.397 0 0 0 2.393 2.393h21.121a.366.366 0 1 1 0 .734Z" fill="#6A2EA0"/><path d="M42.523 24.84H37.19a.367.367 0 0 1-.367-.367v-2.039a.367.367 0 1 1 .734 0v1.671h4.598v-5.04h-3.098a.367.367 0 1 1 0-.734h3.465c.203 0 .367.164.367.367v5.774a.366.366 0 0 1-.367.367Z" fill="#6A2EA0"/><path d="M39.857 23.237a.357.357 0 0 1-.274-.125l-2.665-3.019a.368.368 0 0 1 .55-.487l2.342 2.65 3.55-5.652a.368.368 0 0 1 .622.391l-3.812 6.068a.37.37 0 0 1-.281.172c-.013.002-.022.002-.032.002ZM13.43 28.532c-1.334 0-2.67-.301-3.842-.9-2.535-1.3-5.192-1.31-6.936-.033a.367.367 0 1 1-.436-.592c1.97-1.443 4.92-1.456 7.705-.032 2.139 1.097 4.881 1.097 6.983 0 2.418-1.26 5.361-1.252 7.683.015a.37.37 0 0 1 .147.5.367.367 0 0 1-.5.146c-2.077-1.135-4.822-1.138-6.992-.007-1.15.602-2.479.903-3.812.903Z" fill="#6A2EA0"/><defs><linearGradient id="a" x1="5.456" y1="32.745" x2="54.051" y2="32.745" gradientUnits="userSpaceOnUse"><stop stop-color="#4C90FF"/><stop offset=".126" stop-color="#5B8BF5"/><stop offset=".368" stop-color="#827CDA"/><stop offset=".699" stop-color="#C064AF"/><stop offset="1" stop-color="#FF4C84"/></linearGradient></defs></svg>
